vendor/assets/components/modernizr/media/Modernizr 2 Logo.svg

<svg xmlns="http://www.w3.org/2000/svg" width="600" height="88.8"><g fill="#D91B77"><polygon fill-rule="evenodd" clip-rule="evenodd" points="0,86.4 0,57.6 28.8,57.6 28.8,28.8 57.6,28.8 57.6,0 86.4,0 86.4,86.4"/><path fill-rule="evenodd" clip-rule="evenodd" d="M93.6 0c47.718 0 86.4 38.683 86.4 86.399h-86.4v-86.399z"/><path d="M580.505 50.198c-4.061 0-9.504 3.283-11.405 6.652v29.549h-6.479v-41.731h6.479v6.653c3.37-4.319 8.208-7.603 13.911-7.603v6.653c-.779-.087-1.556-.173-2.506-.173z"/><polygon points="551.648,86.399 519.854,86.399 519.854,81.303 542.836,50.371 519.854,50.371 519.854,44.668 551.303,44.668 551.303,49.594 528.147,80.697 551.648,80.697"/><rect x="502.401" y="44.668" width="6.479" height="41.731"/><path d="M505.685 38.707c-2.42 0-4.407-1.901-4.407-4.32 0-2.419 1.987-4.407 4.407-4.407 2.419 0 4.319 1.988 4.319 4.407s-1.9 4.32-4.319 4.32zM482.963 86.399v-27.301c0-7.431-3.803-9.678-9.418-9.678-5.098 0-9.85 3.111-12.355 6.48v30.499h-6.48v-41.731h6.48v6.048c2.938-3.542 8.64-7.084 14.947-7.084 8.64 0 13.219 4.407 13.219 13.479v29.289h-6.393zM444.083 50.198c-4.061 0-9.504 3.283-11.404 6.652v29.549h-6.479v-41.731h6.479v6.653c3.369-4.319 8.208-7.603 13.911-7.603v6.653c-.778-.087-1.556-.173-2.507-.173z"/><polygon points="258.067,86.399 258.067,37.93 238.541,86.399 235.604,86.399 215.991,37.93 215.991,86.399 208.819,86.399 208.819,28.771 219.101,28.771 237.072,73.181 254.957,28.771 265.239,28.771 265.239,86.399"/><path d="M415.746 66.01c0-12.528-7.431-22.378-20.046-22.378-11.923 0-20.562 9.763-20.562 21.86 0 13.047 8.898 21.945 21.341 21.945 6.739 0 12.355-2.333 16.589-6.479l-3.111-4.234c-3.369 3.456-8.121 5.356-12.96 5.356-8.985 0-14.429-6.565-14.946-14.428h33.696v-1.642zm-33.783-3.198c.346-6.307 4.752-13.824 13.651-13.824 9.504 0 13.651 7.69 13.737 13.824h-27.388zM358.117 28.771v22.205c-3.37-4.579-8.468-7.344-14.084-7.344-10.887 0-18.575 8.554-18.575 21.946 0 13.565 7.688 21.859 18.575 21.859 5.876 0 10.974-3.023 14.084-7.258v6.221h6.479v-57.629h-6.479zm0 46.224c-2.247 3.628-7.344 6.652-12.442 6.652-8.467 0-13.478-6.825-13.478-16.07s5.011-16.157 13.478-16.157c5.099 0 10.195 3.111 12.442 6.739v18.836zM296.687 43.631c-12.701 0-20.649 9.763-20.649 21.86 0 12.096 7.948 21.945 20.649 21.945s20.65-9.85 20.65-21.945c0-12.096-7.949-21.86-20.65-21.86zm0 38.016c-8.899 0-13.824-7.603-13.824-16.156 0-8.468 4.925-16.071 13.824-16.071 8.9 0 13.824 7.604 13.824 16.071 0 8.554-4.924 16.156-13.824 16.156z"/></g></svg>

<?xml version="1.0" encoding="utf-8"?>
<!-- Generator: Adobe Illustrator 15.0.2, SVG Export Plug-In . SVG Version: 6.00 Build 0)  -->
<!DOCTYPE svg PUBLIC "-//W3C//DTD SVG 1.1//EN" "http://www.w3.org/Graphics/SVG/1.1/DTD/svg11.dtd">
<svg version="1.1" id="Layer_1" xmlns="http://www.w3.org/2000/svg" xmlns:xlink="http://www.w3.org/1999/xlink" x="0px" y="0px"
	 width="600px" height="88.8px" viewBox="0 0 600 88.8" enable-background="new 0 0 600 88.8" xml:space="preserve">
<g>
	<polygon fill-rule="evenodd" clip-rule="evenodd" fill="#D91B77" points="0,86.4 0,57.6 28.8,57.6 28.8,28.8 57.6,28.8 57.6,0 
		86.4,0 86.4,86.4 	"/>
	<path fill-rule="evenodd" clip-rule="evenodd" fill="#D91B77" d="M93.6,0C141.318,0,180,38.683,180,86.399H93.6V0z"/>
	<path fill="#D91B77" d="M580.505,50.198c-4.061,0-9.504,3.283-11.405,6.652v29.549h-6.479V44.668h6.479v6.653
		c3.37-4.319,8.208-7.603,13.911-7.603v6.653C582.232,50.284,581.455,50.198,580.505,50.198z"/>
	<polygon fill="#D91B77" points="551.648,86.399 519.854,86.399 519.854,81.303 542.836,50.371 519.854,50.371 519.854,44.668 
		551.303,44.668 551.303,49.594 528.147,80.697 551.648,80.697 	"/>
	<rect x="502.401" y="44.668" fill="#D91B77" width="6.479" height="41.731"/>
	<path fill="#D91B77" d="M505.685,38.707c-2.42,0-4.407-1.901-4.407-4.32c0-2.419,1.987-4.407,4.407-4.407
		c2.419,0,4.319,1.988,4.319,4.407C510.004,36.806,508.104,38.707,505.685,38.707z"/>
	<path fill="#D91B77" d="M482.963,86.399V59.098c0-7.431-3.803-9.678-9.418-9.678c-5.098,0-9.85,3.111-12.355,6.48v30.499h-6.48
		V44.668h6.48v6.048c2.938-3.542,8.64-7.084,14.947-7.084c8.64,0,13.219,4.407,13.219,13.479v29.289H482.963z"/>
	<path fill="#D91B77" d="M444.083,50.198c-4.061,0-9.504,3.283-11.404,6.652v29.549h-6.479V44.668h6.479v6.653
		c3.369-4.319,8.208-7.603,13.911-7.603v6.653C445.812,50.284,445.034,50.198,444.083,50.198z"/>
	<polygon fill="#D91B77" points="258.067,86.399 258.067,37.93 238.541,86.399 235.604,86.399 215.991,37.93 215.991,86.399 
		208.819,86.399 208.819,28.771 219.101,28.771 237.072,73.181 254.957,28.771 265.239,28.771 265.239,86.399 	"/>
	<path fill="#D91B77" d="M415.746,66.01c0-12.528-7.431-22.378-20.046-22.378c-11.923,0-20.562,9.763-20.562,21.86
		c0,13.047,8.898,21.945,21.341,21.945c6.739,0,12.355-2.333,16.589-6.479l-3.111-4.234c-3.369,3.456-8.121,5.356-12.96,5.356
		c-8.985,0-14.429-6.565-14.946-14.428h33.696V66.01z M381.963,62.812c0.346-6.307,4.752-13.824,13.651-13.824
		c9.504,0,13.651,7.69,13.737,13.824H381.963z"/>
	<path fill="#D91B77" d="M358.117,28.771v22.205c-3.37-4.579-8.468-7.344-14.084-7.344c-10.887,0-18.575,8.554-18.575,21.946
		c0,13.565,7.688,21.859,18.575,21.859c5.876,0,10.974-3.023,14.084-7.258v6.221h6.479V28.771H358.117z M358.117,74.995
		c-2.247,3.628-7.344,6.652-12.442,6.652c-8.467,0-13.478-6.825-13.478-16.07s5.011-16.157,13.478-16.157
		c5.099,0,10.195,3.111,12.442,6.739V74.995z"/>
	<path fill="#D91B77" d="M296.687,43.631c-12.701,0-20.649,9.763-20.649,21.86c0,12.096,7.948,21.945,20.649,21.945
		s20.65-9.85,20.65-21.945C317.337,53.395,309.388,43.631,296.687,43.631z M296.687,81.647c-8.899,0-13.824-7.603-13.824-16.156
		c0-8.468,4.925-16.071,13.824-16.071c8.9,0,13.824,7.604,13.824,16.071C310.511,74.045,305.587,81.647,296.687,81.647z"/>
</g>
</svg>
